ui/StatusQ/src/assets/img/icons/pencil.svg

<svg fill="none" height="13" viewBox="0 0 13 13" width="13" xmlns="http://www.w3.org/2000/svg"><g fill="#000"><path d="m.100954 12.5959.697408-2.78967c.032226-.1289.072864-.25507.12149-.37776.061862-.15608.261598-.18616.380318-.06745l2.3388 2.33878c.11872.1187.08863.3185-.06745.3803-.12269.0487-.24886.0893-.37776.1215l-2.789637.6974c-.183095.0458-.3489432-.12-.303169-.3031z"/><path d="m4.32312 10.2627c.39052.3905 1.02369.3905 1.41421 0l6.55547-6.5555c.3905-.39052.3905-1.02369 0-1.41421l-1.5858-1.58579c-.3905-.390524-1.02368-.390525-1.41421-.000001l-6.55546 6.555461c-.39052.39052-.39052 1.02369 0 1.41421z"/></g></svg>

<svg width="13" height="13" viewBox="0 0 13 13" fill="none" xmlns="http://www.w3.org/2000/svg">
<path d="M0.100954 12.5959L0.798362 9.80623C0.830588 9.67733 0.871226 9.55116 0.919852 9.42847C0.981714 9.27239 1.18145 9.24231 1.30017 9.36102L3.63897 11.6998C3.75769 11.8185 3.7276 12.0183 3.57152 12.0801C3.44883 12.1288 3.32266 12.1694 3.19376 12.2016L0.404123 12.899C0.221028 12.9448 0.0551798 12.779 0.100954 12.5959Z" fill="black"/>
<path d="M4.32312 10.2627C4.71364 10.6532 5.34681 10.6532 5.73733 10.2627L12.2928 3.7072C12.6833 3.31668 12.6833 2.68351 12.2928 2.29299L10.707 0.7072C10.3165 0.316676 9.68332 0.316675 9.29279 0.707199L2.73733 7.26266C2.34681 7.65318 2.34681 8.28635 2.73733 8.67687L4.32312 10.2627Z" fill="black"/>
</svg>
